X:1
T:There’s Glory in This Way
T:There’s Glory in This Way
T:J. W. Smith
T:Joseph Nicholas Speakes, 1907
T:Public Domain Courtesy of the Cyber Hymnal™
T:Public Domain Courtesy of the Cyber Hymnal™
C:J. W. Smith
Z:Public Domain
Z:Courtesy of the Cyber Hymnal™
%%score ( 1 2 ) ( 3 4 )
L:1/8
Q:1/4=93
M:4/4
K:C
V:1 treble 
V:2 treble 
V:3 bass 
V:4 bass 
V:1
 [CE]>[DF] | [EG]>[FA] [EG]>[DF] [CE]2 [EG]>[EG] | [FA]>[Fc] [Fc]>[FA] [EG]4 | [Ge]6 [Ec]2 | %4
w: 1.~All a-|long the way we sing, And our|hal- le- lu- jahs ring;|Oh, there’s|
w: 2.~Je- sus’|blood is all our plea, And from|sin it makes us free;|Oh, there’s|
w: 3.~Tho’ our|fier- cest foes de- ride, Still in|Je- sus we’ll con- fide;|Oh, there’s|
w: 4.~Je- sus|saves and jus- ti- fies, No good|thing He e’er de- nies;|Oh, there’s|
 [Ge]<[Ge] [Gd]>[Gc] !fermata![Gd]2 [CE]>[DF] | [EG]>[FA] [EG]>[DF] [CE]2 [EG]>[EG] | %6
w: glo- ry in this way! We will|praise our Lord and king, And to|
w: glo- ry in this way! Of His|full- ness we re- ceive, For His|
w: glo- ry in this way! He will|guide us day by day, While we|
w: glo- ry in this way! Heav’n- ly|joys en- rapt the soul, While our|
 [FA]>[Fc] [Fc]>[FA] [EG]4 | [Ge]6 [Gc]2 | [Ge]<[Ge] [Fd]>[Fd] !fermata![Ec]2 || %9
w: Him our all will bring;|Oh, there’s|glo- ry in this way!|
w: word we do be- lieve;|Oh, there’s|glo- ry in this way!|
w: walk the nar- row way;|Oh, there’s|glo- ry in this way!|
w: prais- es on- ward roll;|Oh, there’s|glo- ry in this way!|
"^Refrain" [CE]>[DF] | G4- G>G [FA]>[EG] | c6 [Ec]>[Ec] | e4- e>c [FB]>[Ec] | %13
w: ||||
w: ||||
w: Oh, there’s|glo- ry in this way!|Oh, there’s glo-|ry * in this way!|
w: ||||
 !fermata!d6 !fermata![CE]>[D=F] | [EG]>[FA] [EG]>[DF] [CE]2 [EG]>[EG] | %15
w: ||
w: ||
w: Joy- ful an-|thems now we sing, To our Sav-|
w: ||
 [FA]>[Fc] [Fc]>[FA] [EG]4 | [Ge]6 [Gc]2 | [Ge]<[Ge] [Fd]>[Fd] !fermata![Ec]2 |] %18
w: |||
w: |||
w: ior, priest and king! Oh,|there’s glo-|ry in this way! *|
w: |||
V:2
 x2 | x8 | x8 | x8 | x8 | x8 | x8 | x8 | x6 || x2 | (E>ED>D) E2 x2 | (E>EF>F E2) x2 | %12
 (G>GA>A G2) x2 | (G>G^F>F) G2 x2 | x8 | x8 | x8 | x6 |] %18
V:3
 [C,G,]>[C,G,] | [C,C]>[C,C] [C,C]>[C,C] [C,G,]2 [C,C]>[C,C] | [F,C]>[F,A,] [F,A,]>[F,C] [C,C]4 | %3
w: ~ ~|~ ~ ~ ~ ~ ~ ~|~ ~ ~ ~ ~|
 [C,C]2 [C,C]2 [C,C]2 [C,G,]2 | [C,C]<[C,C] [D,B,]>[E,C] !fermata![G,B,]2 [C,G,]>[C,G,] | %5
w: ~ ~ ~ ~|~ ~ ~ ~ ~ ~ ~|
 [C,C]>[C,C] [C,C]>[C,C] [C,G,]2 [C,C]>[C,C] | [F,C]>[F,A,] [F,A,]>[F,C] [C,C]4 | %7
w: ~ ~ ~ ~ ~ ~ ~|~ ~ ~ ~ ~|
 [C,C]2 [C,C]2 [C,C]2 [E,C]2 | [G,C]<[G,C] [G,B,]>[G,B,] !fermata![C,C]2 || [C,G,]>[C,G,] | %10
w: ~ ~ ~ ~|~ ~ ~ ~ ~|Oh, there’s|
 [C,C]>[C,C] [G,B,]>[G,B,] [C,C]2 [C,C]>[C,C] | [C,G,]>[C,G,] [F,A,]>[F,A,] [C,G,]2 C>C | %12
w: glo- ry in this way! Oh, there’s|glo- ry in this way! \- \-|
 C>C [A,C]>[A,C] [E,C]2 [D,G,]>[C,G,] | [G,B,]>[G,B,] [D,A,]>[D,C] !fermata![G,B,]2 [C,G,]>[C,G,] | %14
w: glory in this way! In this bless-|ed, shin- ing way! ~ ~ ~|
 [C,C]>[C,C] [C,C]>[C,C] [C,G,]2 [C,C]>[C,C] | [F,C]>[F,A,] [F,A,]>[F,C] [C,C]4 | %16
w: ~ ~ ~ ~ ~ ~ ~|~ ~ ~ ~ Oh,|
 [C,C]2 [C,C]2 [C,C]2 [E,C]2 | [G,C]<[G,C] [G,B,]>[G,B,] !fermata![C,C]2 |] %18
w: there’s glo- ry in|this way! * * *|
V:4
 x2 | x8 | x8 | x8 | x8 | x8 | x8 | x8 | x6 || x2 | x8 | x6 C>C | C>C x6 | x8 | x8 | x8 | x8 | %17
 x6 |] %18

